X:719
T:Polska efter Bruun
R:Polska
Z:Patrik Månsson, 2008-10-30
O:Särslöv, Skåne
S:efter Johan Jacob Bruun
B:[[!Omtyckta Skånska Allspelslåtar]]
B:http://www.smus.se/earkiv/fmk/browselarge.php?lang=sw&katalogid=Ske+30&bildnr=00058
M:3/4
L:1/16
K:Am
|: c3d efge f2e2 | e2a2 a^ga=g f2e2 | c3d e2eg f2f2 | e2e2 c4 A4 :|
|: ABcB ABcB ABcd | efge f4 e4 | ABcB ABcB ABcd | efge f4 e4 |
e2a^g a2a=g e4 | g2ge gfed c4 | d2df e2e2 d3B | c3A B4 A4 :|
(:musicend:)

(:music:)
